X: 261
T:Yousca
M:6/8
L:1/8
Q:110
C:trad
R:Ronde
O:France
A:Gascogne
Z:S.Piron
K:C
g|:c2de2f|g2g a2a|g2g a2a|1g3g2g:|
M:9/8
2g3g2gg2g|
M:6/8
|c'2 gg2f|e2e ede|gfe ded|c2 e ede|gfe ded|c3c2 g||
W:
W: From "Falaleiro" http://home.t-online.de/home/pheld/homepage.htm
